src/categories-icons-sprite/categories/svg-cat-gifts-packaging.svg

<svg width="26" height="34" viewBox="0 0 26 34" fill="none" xmlns="http://www.w3.org/2000/svg">
<path class="p-663325" d="M19.9219 9.03125H17.9297C17.9297 5.88353 15.818 3.14759 12.9492 2.29095C12.3117 2.0918 11.6542 1.99219 10.957 1.99219C7.11211 1.99219 3.98437 5.18633 3.98437 9.03125H1.99219C1.99219 4.09056 6.01647 0 10.957 0C11.6344 0 12.3117 0.0796211 12.9492 0.239062C16.9336 1.13555 19.9219 4.76797 19.9219 9.03125Z" fill="#58ADE5"/>
<path class="p-8C4A37" d="M23.9062 9.03125H21.9141C21.9141 5.18633 18.7863 1.99219 14.9414 1.99219C14.2442 1.99219 13.5867 2.0918 12.9492 2.29095C10.0805 3.14759 7.96875 5.88359 7.96875 9.03125H5.97656C5.97656 4.76797 8.96484 1.13555 12.9492 0.239062C13.5867 0.0796211 14.264 0 14.9414 0C19.882 0 23.9062 4.09056 23.9062 9.03125Z" fill="#B9DFFC"/>
<path class="p-3C1B13" d="M19.9219 9.03096H17.9297C17.9297 5.88323 15.818 3.1473 12.9492 2.29066V0.23877C16.9336 1.13525 19.9219 4.76768 19.9219 9.03096Z" fill="#4D98CB"/>
<path class="p-663325" d="M23.9062 9.03125H21.9141C21.9141 5.18633 18.7863 1.99219 14.9414 1.99219C14.2442 1.99219 13.5867 2.0918 12.9492 2.29095V0.239062C13.5867 0.0796211 14.264 0 14.9414 0C19.882 0 23.9062 4.09056 23.9062 9.03125Z" fill="#65B3E7"/>
<path class="p-FF6498" d="M0 8.03516V34H25.8984V8.03516H0Z" fill="#58ADE5"/>
<path class="p-FF3980" d="M25.8984 8.03516H12.9492V34H25.8984V8.03516Z" fill="#4D98CB"/>
<path class="p-FDBF00" d="M21.9141 11.6409V22.3588L15.9375 19.9881L13.3676 17.0795L12.9492 17.4381L9.96094 19.9881L3.98438 22.3588V11.6409L9.96094 14.0116L12.9492 15.5455L13.8657 16.0038L15.9375 14.0116L21.9141 11.6409Z" fill="#B9DFFC"/>
<path class="p-FF9100" d="M15.9375 14.0116L21.9141 11.6409V22.3588L15.9375 19.9881L13.3676 17.0795L12.9492 17.4381V15.5455L13.8657 16.0038L15.9375 14.0116Z" fill="#76B7E2"/>
<path class="p-FED966" d="M9.96094 14.0117V19.9883H15.9375V14.0117H9.96094Z" fill="#A1D1FD"/>
<path class="p-FDBF00" d="M15.9375 14.0117H12.9492V19.9883H15.9375V14.0117Z" fill="#65B3E7"/>
</svg>

<svg width="26" height="34" fill="none" xmlns="http://www.w3.org/2000/svg"><path class="p-663325" d="M19.922 9.031H17.93c0-3.147-2.112-5.883-4.98-6.74a6.61 6.61 0 00-1.993-.299c-3.845 0-6.973 3.194-6.973 7.04H1.992C1.992 4.09 6.016 0 10.957 0c.677 0 1.355.08 1.992.24 3.985.896 6.973 4.528 6.973 8.791z" fill="#58ADE5"/><path class="p-8C4A37" d="M23.906 9.031h-1.992c0-3.845-3.128-7.039-6.973-7.039-.697 0-1.354.1-1.992.299-2.868.857-4.98 3.593-4.98 6.74H5.977c0-4.263 2.988-7.895 6.972-8.792A8.26 8.26 0 0114.941 0c4.941 0 8.965 4.09 8.965 9.031z" fill="#B9DFFC"/><path class="p-3C1B13" d="M19.922 9.031H17.93c0-3.148-2.112-5.884-4.98-6.74V.239c3.984.896 6.972 4.529 6.972 8.792z" fill="#4D98CB"/><path class="p-663325" d="M23.906 9.031h-1.992c0-3.845-3.128-7.039-6.973-7.039-.697 0-1.354.1-1.992.299V.239A8.26 8.26 0 0114.941 0c4.941 0 8.965 4.09 8.965 9.031z" fill="#65B3E7"/><path class="p-FF6498" d="M0 8.035V34h25.898V8.035H0z" fill="#58ADE5"/><path class="p-FF3980" d="M25.898 8.035H12.95V34H25.9V8.035z" fill="#4D98CB"/><path class="p-FDBF00" d="M21.914 11.64V22.36l-5.977-2.37-2.57-2.91-.418.36-2.988 2.55-5.977 2.37V11.64l5.977 2.37 2.988 1.535.917.458 2.072-1.992 5.976-2.371z" fill="#B9DFFC"/><path class="p-FF9100" d="M15.938 14.012l5.976-2.371v10.718l-5.977-2.37-2.57-2.91-.418.36v-1.893l.917.458 2.072-1.992z" fill="#76B7E2"/><path class="p-FED966" d="M9.96 14.012v5.976h5.977v-5.976H9.962z" fill="#A1D1FD"/><path class="p-FDBF00" d="M15.938 14.012h-2.989v5.976h2.989v-5.976z" fill="#65B3E7"/></svg>
